X:1
T:Avec le jour
T:Avec le jour
T:Orlando di Lasso (1532-1594)
T:2010 by Paul R Marchesano. May be freely copied for nonprofit use.
T:2010 by Paul R Marchesano. May be freely copied for nonprofit use.
T:2010 by Paul R Marchesano. May be freely copied for nonprofit use.
T:2010 by Paul R Marchesano. May be freely copied for nonprofit use.
C:Orlando di Lasso
C:(1532-1594)
Z:2010 by Paul R Marchesano. May be freely copied for nonprofit use.
%%score [ 1 2 3 4 ]
L:1/8
Q:1/4=110
M:2/2
K:F
V:1 treble nm="Soprano" snm="S"
V:2 treble nm="Alto" snm="A"
V:3 treble-8 nm="Tenor" snm="T"
V:4 bass nm="Bass" snm="B"
V:1
 z8 | z4 G2 G2 | A2 B4 A2 | d2 c2 B2 A2 | G4 ^F2 F2 | G2 A2 A2 A2 | B4 B2 A2- | AG G4 ^F2 | %8
w: |A- vec|le jour com-|men- ce ta jour-|né- e De|l'E- ter- nel le|sainct nom be-|* * * nis-|
 G4 z2 E2 | F4 F4 | F2 z B2 A2 G | A2 B2 A4 | A4 B2 B2- | BB G3 F/E/ F2 | E2 E2 F2 G2 | A2 c3 BAG | %16
w: sant Le|soir aus-|si ton la- beur|fi- nis- sant|Lou- ë leen-||cor' et pas- seain-|si l'an- * * *|
 F2 B3 AGF | EF G3 F/E/ F2 | G2 ^F2 G2 B2- | BA G3 F/E/ F2 | E2 E2 F2 G2 | A2 c3 BAG | F2 B3 AGF | %23
w: * né- * * *||e. Lou- ë leen-||cor' et pas- seain-|si l'an- * * *|* né- * * *|
 EF G3 ^F/E/ F2 | G8 |] %25
w: |e.|
V:2
 z8 | z2 D2 D2 E2 | F2 F2 G2 F2 | F2 _E3 D D2- | D2 C2 D2 D2 | D2 F2 E2 F2- | F2 G2 F4 | %7
w: |A- vec le|jour com- men- ce|ta jour- * *|* né- e De|l'E- ter- nel le|_ sainct nom|
 _E2 DC D2 D2 | =B,4 z2 C2 | C2 D2 C4 | B,2 F2 F3 E/D/ | FE G2 E4 | ^F3 F G2 G,2 | B,2 C2 D2 D2- | %14
w: be- * * * nis-|sant Le|soir aus- si|ton la- beur _ _|_ _ _ fi-|* nis- sant Lou-|ë leen- cor' et|
 DC/B,/ C2 D2 E2 | F2 C2 C4 | D2 F2 G2 D2 | C3 C D4- | D4 D2 G,2 | B,2 C2 D2 D2- | %20
w: _ _ _ _ pas- seain-|si l'an- né-|e. et pas- seain-|si l'an- né-|* e. Lou-|ë leen- cor' et|
 DC/B,/ C2 D2 E2 | F2 C2 C4 | D2 F2 G2 D2 | C3 C D4 | =B,8 |] %25
w: _ _ _ _ pas- seain-|si l'an- né-|e. et pas- seain-|si l'an- né-|e.|
V:3
 z4 z2 G2 | G2 A2 B3 B | c2 d2 _e2 c2 | BB G4 ^F2 | G4 A2 A2 | =B2 d2 ^c2 d2 | d2 d2 d3 A | %7
w: A-|vec le jour A-|vec le jour com-|men- ce ta jour-|né- e De|l'E- ter- nel le|sainct nom be- *|
 cBAG A2 A2 | d4 z2 G2 | F3 B2 A/G/ A2 | d4 c2 dG | c2 d3 c/B/ c2 | d8 | G4 B2 A2 | A2 A2 A2 c2 | %15
w: * * * * * nis-|sant Le|soir aus- * * *|si ton la- beur|fi- nis- * * *|sant|Lou- ë leen-|cor' et pas- seain-|
 cBAG F3 G | A2 d3 cBA | G4 A4 | B2 A2 B2 d2 | G3 G B2 A2 | A2 A2 A2 c2 | cBAG F3 G | A2 d3 cBA | %23
w: si _ _ _ _ _|_ l'an- * * *|* né-|e. Lou- ë leen-|cor' et pas- seain-|si et pas- seain-|si _ _ _ _ _|_ l'an- * * *|
 G4 A4 | G8 |] %25
w: * né-|e.|
V:4
 G,2 G,2 A,2 B,2- | B,2 F,2 G,4 | F,2 B,2 _E,2 F,2 | B,,2 C,2 D,4 | E,4 D,2 D,2 | %5
w: A- vec le jour|_ com- men-|ce com- men- ce|ta jour- né-|* e De|
 G,2 D,2 A,2 D,C, | B,,A,,G,,A,, B,,C, D,2 | C,2 E,2 D,2 D,2 | G,,4 z2 C,2 | A,,2 B,,2 F,4 | %10
w: l'E- ter- nel le _|_ _ _ _ _ _ _|sainct nom be- nis-|sant Le|soir aus- si|
 z2 B,,2 F,2 B,2 | A,2 G,2 A,4 | z2 D,2 G,3 F, | _E,2 E,2 D,4 | A,,4 D,2 C,2 | F,3 G, A,G,F,E, | %16
w: ton la- beur|fi- nis- sant|Lou- ë _|_ leen- cor'|et pas- seain-|si _ l'an- * * *|
 D,C,B,,A,, G,,2 G,,2 | C,2 _E,2 D,4 | G,,2 D,2 G,3 F, | _E,2 E,2 D,4 | A,,4 D,2 C,2 | %21
w: * * * * * né-||e. Lou- ë _|_ leen- cor'|et pas- seain-|
 F,3 G, A,G,F,E, | D,C,B,,A,, G,,2 G,,2 | C,2 _E,2 D,4 | G,,8 |] %25
w: si _ l'an- * * *|* * * * * né-||e.|

